dist/img/user.svg

<svg width="16" height="16" viewBox="0 0 16 16" fill="none" xmlns="http://www.w3.org/2000/svg">
<path d="M7.5146 0C5.13335 0 3.2021 1.93125 3.2021 4.3125C3.2021 6.69375 5.13335 8.625 7.5146 8.625C9.89585 8.625 11.8271 6.69375 11.8271 4.3125C11.8271 1.93125 9.89585 0 7.5146 0ZM7.5146 1.125C9.2771 1.125 10.7021 2.55 10.7021 4.3125C10.7021 6.075 9.2771 7.5 7.5146 7.5C5.7521 7.5 4.3271 6.075 4.3271 4.3125C4.3271 2.55 5.7521 1.125 7.5146 1.125ZM7.5146 10.125C4.4396 10.125 1.58975 11.7937 0.0709987 14.4562C-0.0790013 14.7187 0.0146022 15.0749 0.295852 15.2249C0.389602 15.2811 0.483352 15.2999 0.577102 15.2999C0.764602 15.2999 0.970779 15.2062 1.06453 15.0187C2.37703 12.6937 4.8521 11.25 7.5146 11.25C10.1771 11.25 12.6521 12.6937 13.9834 15.0187C14.1334 15.2812 14.4708 15.3749 14.752 15.2249C15.0145 15.0749 15.1082 14.7374 14.9582 14.4562C13.4395 11.7937 10.5896 10.125 7.5146 10.125Z" fill="#898C9B"/>
</svg>

<svg xmlns="http://www.w3.org/2000/svg" fill="none" viewBox="0 0 16 16"><path fill="#898C9B" d="M7.515 0a4.313 4.313 0 100 8.626 4.313 4.313 0 000-8.626zm0 1.125a3.185 3.185 0 013.187 3.188A3.185 3.185 0 017.515 7.5a3.185 3.185 0 01-3.188-3.188 3.185 3.185 0 013.188-3.187zm0 9A8.595 8.595 0 00.07 14.456a.563.563 0 00.225.769.53.53 0 00.281.075.544.544 0 00.488-.281 7.423 7.423 0 016.45-3.769 7.476 7.476 0 016.468 3.769.57.57 0 00.769.206.57.57 0 00.206-.769 8.595 8.595 0 00-7.443-4.331z"/></svg>
